assets/img/braze_icons/switch-horizontal-01.svg

<svg fill="none" height="24" viewBox="0 0 24 24" width="24" xmlns="http://www.w3.org/2000/svg"><g fill="#801ed7"><path d="m16.7071 2.29289c-.3905-.39052-1.0237-.39052-1.4142 0-.3905.39053-.3905 1.02369 0 1.41422l2.2929 2.29289h-13.5858c-.55228 0-1 .44772-1 1s.44772 1 1 1h13.5858l-2.2929 2.2929c-.3905.3905-.3905 1.0237 0 1.4142s1.0237.3905 1.4142 0l4-3.99999c.3905-.39053.3905-1.02369 0-1.41422z"/><path d="m8.70711 13.7071c.39052-.3905.39052-1.0237 0-1.4142-.39053-.3905-1.02369-.3905-1.41422 0l-4 4c-.39052.3905-.39052 1.0237 0 1.4142l4 4c.39053.3905 1.02369.3905 1.41422 0 .39052-.3905.39052-1.0237 0-1.4142l-2.2929-2.2929h13.58579c.5523 0 1-.4477 1-1s-.4477-1-1-1h-13.58579z"/></g></svg>

<svg width="24" height="24" viewBox="0 0 24 24" fill="none" xmlns="http://www.w3.org/2000/svg">
<path d="M16.7071 2.29289C16.3166 1.90237 15.6834 1.90237 15.2929 2.29289C14.9024 2.68342 14.9024 3.31658 15.2929 3.70711L17.5858 6L4 6C3.44772 6 3 6.44772 3 7C3 7.55228 3.44772 8 4 8L17.5858 8L15.2929 10.2929C14.9024 10.6834 14.9024 11.3166 15.2929 11.7071C15.6834 12.0976 16.3166 12.0976 16.7071 11.7071L20.7071 7.70711C21.0976 7.31658 21.0976 6.68342 20.7071 6.29289L16.7071 2.29289Z" fill="#801ED7"/>
<path d="M8.70711 13.7071C9.09763 13.3166 9.09763 12.6834 8.70711 12.2929C8.31658 11.9024 7.68342 11.9024 7.29289 12.2929L3.29289 16.2929C2.90237 16.6834 2.90237 17.3166 3.29289 17.7071L7.29289 21.7071C7.68342 22.0976 8.31658 22.0976 8.70711 21.7071C9.09763 21.3166 9.09763 20.6834 8.70711 20.2929L6.41421 18H20C20.5523 18 21 17.5523 21 17C21 16.4477 20.5523 16 20 16L6.41421 16L8.70711 13.7071Z" fill="#801ED7"/>
</svg>
